X:1
T:Lebenslied
T:Joseph Abenheim
T:Friedrich von Matthisson
T:Lebenslied
T:Op. 7, Nr. 2
T:CPDL - Creative Commons Attribution Non Commercial 3.0
C:Joseph Abenheim
Z:Friedrich von Matthisson
Z:CPDL - Creative Commons Attribution Non Commercial 3.0
%%score [ ( 1 2 ) ( 3 4 ) ]
L:1/8
Q:1/4=116
M:2/4
K:A
V:1 treble-8 nm="Tenor"
V:2 treble-8 
V:3 bass nm="Bass"
V:4 bass 
V:1
!mf!"^Allegro" c2 dB | A2 E z | B2 EB | c2 A z | f2 eA | d2 c z |!<(! B2 eg!<)! |!f! f>^d e z | %8
w: 1.~Kom- men und|Schei- den,|Su- chen und|Mei- den,|Fürch- ten und|Seh- nen,|Zwei- feln und|Wäh- * nen,|
w: 2.~Frucht- los hie-|nie- den|ringst du nach|Frie- den!|Täu- schen- de|Schim- mer|win- ken dir|im- * mer;|
w: 3.~Auf zu der|Ster- ne|leuch- ten- der|Fer- ne|bli- cke vom|Stau- be|mu- tig der|Glau- * be;|
w: 4.~Güns- ti- ge|Flu- ten|tra- gen die|Gu- ten,|för- dern die|Bra- ven|si- cher zum|Ha- * fen,|
w: 5.~Männ- lich zu|lei- den,|kraft- voll zu|mei- den,|kühn zu ver-|ach- ten,|bleib' un- ser|Trach- * ten|
!p! e2 fe | e2 ^d"^cresc." z/ =d/ | d2 ed | c2 z2 |!mf! c2 de | f2 ee | d2 cc | B2 z2 |!f! c2 de | %17
w: Ar- mut und|Fül- le, Ver-|ö- dung und|Pracht|wech- seln auf|Er- den wie|Dämm- rung und|Nacht,|wech- seln auf|
w: Doch, wie die|Fur- chen des|glei- ten- den|Kahns,|schwin- den die|Zau- ber- ge-|bil- de des|Wahns,|schwin- den die|
w: dort nur ver-|knüpft ein un-|sterb- li- ches|Band|Wahr- heit und|Frie- den, Ver-|ein und Be-|stand,|Wahr- heit und|
w: und ein har-|mo- nisch ver-|klin- gen- des|Lied,|schließt sich das|Le- ben dem|ed- len Ge-|müt,|schließt sich das|
w: bleib' un- ser|Kämp- fen! in|e- her- ner|Brust,|uns des un-|sträf- li- chen|Wil- lens be-|wußt,|uns des un-|
 ^ef f=e | ed cB | A2 z2 |] %20
w: Er- * den wie|Dämm- * rung und|Nacht!|
w: Zau- * ber- ge-|bil- * de des|Wahns!|
w: Frie- * den, Ver-|ein _ und Be-|stand!|
w: Le- * ben dem|ed- * len Ge-|müt!|
w: sträf- * li- chen|Wil- * lens be-|wußt!|
V:2
 A2 AA | E2 E x | E2 EE | E2 E x | A2 AA | G2 A x | G2 Be | ^d>B B x | B2 BB | A2 A x/ B/ | B2 GG | %11
 A2 x2 | A2 Bc | d2 cc | B2 AA | G2 x2 | A2 AA | A2 ^AA | B2 GG | A2 x2 |] %20
V:3
!mf! E,2 F,D, | C,2 C, z | E,2 E,E, | E,2 E, z | D,2 E,E, | E,2 E, z |!<(! E,2 G,B,!<)! | %7
!f! A,2 G, z |!p! G,2 G,G, | F,2 F,"^cresc." z/ G,/ | G,2 B,E, | E,2 z2 |!mf! A,2 A,A, | A,2 A,A, | %14
 E,2 E,E, | E,2 z2 |!f! A,2 A,A, | A,2 F,F, | F,2 E,E, | C,2 z2 |] %20
V:4
 A,,2 A,,A,, | A,,2 A,, x | G,,2 G,,G,, | A,,2 C, x | D,2 C,C, | B,,2 A,, x | B,,2 B,,B,, | %7
 B,,2 E, x | E,2 E,E, | E,2 E, x/ E,/ | E,2 E,E, | A,,2 x2 | A,,2 A,,A,, | D,2 A,,A,, | %14
 G,,2 A,,A,, | E,2 x2 | A,,2 B,,C, | D,2 C,C, | B,,2 E,E, | A,,2 x2 |] %20

